X:1
T:Der Tambour
T:Der Tambour
T:Hugo Distler aus "Mörike-Chorliederbuch" op. 19
T:Eduard Mörike
C:Hugo Distler aus "Mörike-Chorliederbuch" op. 19
Z:Eduard Mörike
%%score [ 1 2 3 4 ]
L:1/8
Q:1/2=80
M:2/2
K:C
V:1 treble-8 nm="Tenor 1" snm="T1."
V:2 treble-8 nm="T2"
V:3 bass nm="B1"
V:4 bass nm="B2"
V:1
"^Recht geschwind und dabei geheimnisvoll. Stark auf Steigerung anlegen" A2- | A2 A A A2 A2 | %2
w: Wenn|* mei- ne Mut- ter|
 f4 e4 | !breath!d2 d2 d d d d | _B2 c2 !breath!A2 A2 | _B4 B4 | c2 c2 _B2 c2 | %7
w: he- xen|könnt, da müßt sie mit dem|Re- gi- ment, nach|Frank- reich,|ü- ber all mit|
[M:3/2] !breath!d3 d d2 d2 g2 g2 |[M:2/2] ^f4 e4 | d8 | z4 z2 A2 | A3 A A2 d2 | f4 e4 | %13
w: hin, und wär die Mar- ke-|ten- de-|rin.|Im|La- ger, wohl um|Mit- ter-|
 !breath!d d d d d2 c2 |[M:3/2] _B2 c2 !breath!A2 A2 A2 B2 |[M:2/2] c4 c4 | _B4 c4 | %17
w: nacht, wenn nie- mand auf ist|als die Wacht, und al- les|Schnar- chet,|Roß und|
 !breath!d3 d d2 d2 | g6 a2 | ^f4 e4 | d8 | z4 z2 _B2 || %22
w: Mann, vor mei- ner|Trom- mel|säß ich|dann:|Die|
[M:3/4][Q:1/4=240]"^  ="[Q:1/4=160]"^" d4 d2 | d4 d2 | _B4 B2 | !breath!_B3 B B2 | _e4 f2 | %27
w: Trom- mel|müßt ein|Schüs- sel|sein, und ein|war- mes|
[M:1/2][Q:1/4=160]"^ =" d4 |[Q:1/4=160]"^" c4 | _B4 | c4 |[M:3/4] !breath!F4 F2 | _B4 B2 | %33
w: Sau-|er-|kraut|dar-|ein, die|Schle- gel|
 c3 _B c2 | d4 !breath!d2 | d2 d2 c2 |[M:1/2] f4 | g4 | e4- | e4 |[M:3/4] !breath!d4 d2 | d4 d2- | %42
w: Mes- ser und|Ga- bel,|ein' lan- ge|Wurst|der|Sa-||bel, mein|Tscha- ko|
 d d d2 B2- | B2 c4 | !breath!d4 d2 | d4 d2- | d d d2 e2- | e2 e4 | !breath!e2 e2 e2- | e e e2 e2 | %50
w: _ wär ein Hum-|* pen|gut, den|füll ich|_ mit Bur- gun-|* der-|blut. Und weil|_ es mir an|
 f4 e2 | !breath!e6 | e3 e f2 |[M:1/2] g4 | c4 | (e4 | d2 c2) | d4 || %58
w: Lich- te|fehlt,|da Scheint der|Mond|in|mein|_ _|Ge-|
[M:2/4]"^Langsam und mit Empfindung. Zart"[Q:1/4=80] !breath!c2 c2- | c2 c2 | c2 d e | A2 A3/2 A/ | %62
w: zelt; Scheint|_ er|auch auf fran-|zö- sich her-|
 A A A f- | f/ f/ g (e2- | ef d2- | de c2 | d2) e2 || %67
w: ein, Mir fällt doch|_ mei- ne Lieb-|||* ste|
[M:2/2]"^Anfangszeitmaß. Rabiat"[Q:1/2=80] !breath!A2 e2 f4 | z2 d2 !breath!e4 | a4 f2 d B | %70
w: ein: Ach weh,|ach weh,|weh! Jetzt hat der|
 e2 e2 !breath!A2 f2- | f2 e4 d2- | !breath!d2 c3 B A2 | e4 e4 | !breath!A2 a2 f2 d2 | B2 c6 | %76
w: Spaß ein End! Jetzt,|_ jetzt, jetzt,|_ jetzt hat der|Spaß ein|End! Jetzt hat der|Spaß ein|
"^Immer mehr zurückhalten bis zum Scluß" A4 z2 A2- | A A A A A2 A2 | f4 e4 | d4 z4 | z2 A3 A A2 | %81
w: End! Wenn|_ nur mei- ne Mut- ter|he- xen|könnt!|Wenn sie nur|
 f4 e4 | d4 z4 | z4 A2 A2 | f4 e4 | z8 | z8 |] %87
w: he- xen|könnt!|Wenn sie|he- xen...|||
V:2
 A2- | A2 A A A2 A2 | d4 c4 | !breath!_B2 c2 A A A A | A2 G2 !breath!A2 F2 | D4 _B4 | A2 F2 G2 G2 | %7
w: Wenn|* mei- ne Mut- ter|he- xen|könnt, da müßt sie mit dem|Re- gi- ment, nach|Frank- reich,|ü- ber all mit|
[M:3/2] !breath!F3 F F2 F2 F2 _B2 |[M:2/2] A4 ^c4 | d8 | z4 z2 A2 | A3 A A2 d2 | d4 c4 | %13
w: hin, und wär die Mar- ke-|ten- de-|rin.|Im|La- ger, wohl um|Mit- ter-|
 !breath!_B B B c A2 A2 |[M:3/2] G2 G2 !breath!^F2 F2 F2 G2 |[M:2/2] A4 A4 | ^F4 G4 | %17
w: nacht, wenn nie- mand auf ist|als die Wacht, und al- les|Schnar- chet,|Roß und|
 !breath!A3 A _B2 c2 | d4 e4 | d4 ^c4 | d8 | z4 z2 G2 ||[M:3/4] _B4 B2 | _B4 B2 | G4 G2 | %25
w: Mann, vor mei- ner|Trom- mel|säß ich|dann:|Die|Trom- mel|müßt ein|Schüs- sel|
 !breath!G3 G G2 | _B4 c2 |[M:1/2] F4- | F2 F2 | F4 | C4 |[M:3/4] !breath!F4 F2 | F4 G2 | A3 G A2 | %34
w: sein, und ein|war- mes|Sau-|* er-|kraut|dar-|ein, die|Schle- gel|Mes- ser und|
 _B4 !breath!B2 | d2 c2 _B2 |[M:1/2] A4 | _B4 | G4- | G4 |[M:3/4] !breath!d4 d2 | d4 d2- | %42
w: Ga- bel,|ein' lan- ge|Wurst|der|Sa-||bel, mein|Tscha- ko|
 d d d2 G2- | G2 c4 | !breath!A4 d2 | d4 d2- | d d d2 e2- | e2 e4 | !breath!^c2 A2 A2- | %49
w: _ wär ein Hum-|* pen|gut, den|füll ich|_ mit Bur- gun-|* der-|blut. Und weil|
 A A A2 A2 | e4 d2 | A4 !breath!A2- | A2 A2 A2 |[M:1/2] B4 | c4- | c4 | c4- | c2 B2 || %58
w: _ es mir an|Lich- te|fehlt, da|_ scheint der|Mond|in|_|mein|_ Ge-|
[M:2/4] !breath!c2 A2- | A2 A2 | A2 A A | G2 F3/2 G/ | E2 e2 | d2 c2- | c B A2 | E4 | c4 || %67
w: zelt; Scheint|_ er|auch auf fran-|zö- sich her-|ein, Mir|fällt doch|_ mei- ne|Lieb-|ste|
[M:2/2] !breath!A2 e2 f4 | z2 d2 !breath!e4 | a4 f2 d B | e2 e2 !breath!A2 f2- | f2 e4 d2- | %72
w: ein: Ach weh,|ach weh,|weh! Jetzt hat der|Spaß ein End! Jetzt,|_ jetzt, jetzt,|
 !breath!d2 c3 B A2 | e4 e4 | !breath!A2 a2 f2 d2 | B2 c6 | A8- | A8 | z2 c6 | A8- | A8 | z2 c6 | %82
w: _ jetzt hat der|Spaß ein|End! Jetzt hat der|Spaß ein|End!|_|Ein|End!|_|Ein|
 A8- | A8 | z2 c6 | AG A6- | A8 |] %87
w: End!|_|Ein|End! _ _|_|
V:3
 A,,2- | A,,2 A,, A,, A,,2 A,,2 | A,4 G,4 | !breath!F,2 E,2 D, D, D, D, | D,2 C,2 !breath!F,2 F,2 | %5
w: Wenn|* mei- ne Mut- ter|he- xen|könnt, da müßt sie mit dem|Re- gi- ment, nach|
 F,4 G,4 | _E,2 F,2 D,2 C,2 |[M:3/2] !breath!_B,,3 B,, B,,2 B,,2 B,,2 G,,2 |[M:2/2] A,,4 A,4 | %9
w: Frank- reich,|ü- ber all mit|hin, und wär die Mar- ke-|ten- de-|
 D,8 | z4 z2 A,,2 | A,,3 A,, D,2 F,2 | A,4 G,4 | !breath!F, F, F, E, D,2 D,2 | %14
w: rin.|Im|La- ger, wohl um|Mit- ter-|nacht, wenn nie- mand auf ist|
[M:3/2] D,2 C,2 !breath!D,2 D,2 D,2 D,2 |[M:2/2] F,6 F,2 | F,4 _E,4 | !breath!G,3 F, G,2 A,2 | %18
w: als die Wacht, und al- les|Schnar- chet,|Roß und|Mann, vor mei- ner|
 _B,4 C4 | A,4 G,4 | D,8 | z4 z2 _E,2 ||[M:3/4] F,4 F,2 | (F,3 _E,) F,2 | G,4 G,2 | %25
w: Trom- mel|säß ich|dann:|Die|Trom- mel|müßt * ein|Schüs- sel|
 !breath!G,3 G, G,2 | G,4 A,2 |[M:1/2] _B,4 | F,4 | D,4 | =E,4 |[M:3/4] !breath!F,4 F,2 | F,4 F,2 | %33
w: sein, und ein|war- mes|Sau-||kraut|dar-|ein, die|Schle- gel|
 _E,3 D, E,2 | F,4 !breath!F,2 | _B,2 A,2 G,2 |[M:1/2] A,4 | D4- | D4 | ^C4 | %40
w: Mes- ser und|Ga- bel,|ein' lan- ge|Wurst|der||Sa-|
[M:3/4] !breath!D4 D,2 | _B,4 B,2- | B, _B, A,2 G,2- | G,2 A,4 | !breath!^F,4 D,2 | _B,4 B,2- | %46
w: bel, mein|Tscha- ko|_ wär ein Hum-|* pen|gut, den|füll ich|
 B, _B, B,2 A,2- | A,2 D4 | !breath!A,2 C2 C2- | C C C2 C2 | _B,4 D2 | D4 !breath!D2- | D2 D2 D2 | %53
w: _ mit Bur- gun-|* der-|blut. Und weil|_ es mir an|Lich- te|fehlt, da|_ scheint der|
[M:1/2] G,4 | C4- | C4 | A,4 | F,4 ||[M:2/4] !breath!C,2 F,2- | F,2 F,2 | E,2 F, G, | %61
w: Mond|in|_|mein|Ge-|zelt; Scheint|_ er|auch auf fran-|
 A,2 A,3/2 A,/ | A,2 A,2 | A,2 A,2- | A, G, A,2 | (B,2 C2- | C2) B,2 || %67
w: zö- sich her-|ein, Mir|fällt doch|_ mei- ne|Lieb- *|* ste|
[M:2/2] !breath!A,2 E,2 F,4 | z2 D,2 !breath!E,4 | A,4 F,2 D, B,, | E,2 E,2 !breath!A,,2 F,2- | %71
w: ein: Ach weh,|ach weh,|weh! Jetzt hat der|Spaß ein End! Jetzt,|
 F,2 E,4 D,2- | !breath!D,2 C,3 B,, A,,2 | E,4 E,4 | !breath!A,,2 A,2 F,2 D,2 | B,,2 C,6 | %76
w: _ jetzt, jetzt,|_ jetzt hat der|Spaß ein|End! Jetzt hat der|Spaß ein|
 A,,4 z2 A,,2- | A,, A,, A,, A,, A,,2 A,,2 | A,4 G,4 | F,4 z4 | z2 A,,3 A,, A,,2 | A,4 G,4 | %82
w: End! Wenn|_ nur mei- ne Mut- ter|he- xen|könnt!|Wenn sie nur|he- xen|
 F,4 z4 | z4 A,,2 A,,2 | A,4 G,4 | z8 | z8 |] %87
w: könnt!|Wenn sie|he- xen...|||
V:4
 A,,2- | A,,2 A,, A,, A,,2 A,,2 | A,4 A,4 | !breath!A,2 G,2 F, F, F, G, | F,2 E,2 !breath!D,2 C,2 | %5
w: Wenn|* mei- ne Mut- ter|he- xen|könnt, da müßt sie mit dem|Re- gi- ment, nach|
 _B,,4 _E,4 | C,2 C,2 D,2 _E,2 |[M:3/2] !breath!F,3 F, F,2 F,2 G,2 =E,2 |[M:2/2] A,4 A,,4 | D,8 | %10
w: Frank- reich,|ü- ber all mit|hin, und wär die Mar- ke-|ten- de-|rin.|
 z4 z2 A,,2 | A,3 A, F,2 D,2 | A,4 A,4 | !breath!A, A, A, G, F,2 G,2 | %14
w: Im|La- ger, wohl um|Mit- ter-|nacht, wenn nie- mand auf ist|
[M:3/2] E,2 E,2 D,3 D, D,2 _B,,2 |[M:2/2] F,4 F,4 | _B,,4 A,,4 | !breath!D,3 D, D,2 D,2 | D,4 G,4 | %19
w: als die Wacht, und al- les|Schnar- chet,|Roß und|Mann, vor mei- ner|Trom- mel|
 D,4 A,,4 | D,8 | z4 z2 _B,,2 ||[M:3/4] _B,,4 B,,2 | _B,,4 B,,2 | _E,4 E,2 | !breath!_E,3 E, E,2 | %26
w: säß ich|dann:|Die|Trom- mel|müßt ein|Schüs- sel|sein, und ein|
 D,4 C,2 |[M:1/2] _B,,4 | A,,4 | G,,4 | G,,4 |[M:3/4] !breath!F,,4 F,2 | D,4 D,2 | C,3 D, C,2 | %34
w: war- mes|Sau-||kraut|dar-|ein, die|Schle- gel|Mes- ser und|
 _B,,4 !breath!B,,2 | F,2 F,2 F,2 |[M:1/2] D,4- | D,2 F,2 | A,4- | A,4 |[M:3/4] !breath!D,4 D,2 | %41
w: Ga- bel,|ein' lan- ge|Wurst|* der|Sa-||bel, mein|
 D,4 D,2- | D, D, D,2 _E,2- | E,2 F,4 | !breath!D,4 D,2 | D,4 D,2- | D, D, =F,2 A,2- | A,2 A,4 | %48
w: Tscha- ko|_ wär ein Hum-|* pen|gut, den|füll ich|_ mit Bur- gun-|* der-|
 !breath!A,,2 A,,2 A,,2- | A,, A,, A,,2 A,,2 | D,4 F,2 | !breath!D,6 | A,,3 A,, A,,2 |[M:1/2] D,4 | %54
w: blut. Und weil|_ es mir an|Lich- te|fehlt,|da scheint der|Mond|
 E,4- | E,4 | F,4 | G,4 ||[M:2/4] !breath!C,2 F,2- | F,2 F,2 | C,2 C, C, | D,2 D,3/2 D,/ | %62
w: in|_|mein|Ge-|zelt; Scheint|_ er|auch auf fran-|zö- sich her-|
 A,,2 A,2 | D,2 G,2- | G, G, F,2 | E,4 | ^G,4 ||[M:2/2] !breath!A,2 E,2 F,4 | z2 D,2 !breath!E,4 | %69
w: ein, Mir|fällt doch|_ mei- ne|Lieb-|ste|ein: Ach weh,|ach weh,|
 A,4 F,2 D, B,, | E,2 E,2 !breath!A,,2 F,2- | F,2 E,4 D,2- | !breath!D,2 C,3 B,, A,,2 | E,4 E,4 | %74
w: weh! Jetzt hat der|Spaß ein End! Jetzt,|_ jetzt, jetzt,|_ jetzt hat der|Spaß ein|
 !breath!A,,2 A,2 F,2 D,2 | B,,2 C,6 | A,,4 z2 A,,2- | A,, A,, A,, A,, A,,2 A,,2 | A,4 A,4 | %79
w: End! Jetzt hat der|Spaß ein|End! Wenn|_ nur mei- ne Mut- ter|he- xen|
 A,4 z4 | z2 A,,3 A,, A,,2 | A,4 A,4 | A,4 z4 | z4 A,,2 A,,2 | A,4 A,4 | z8 | z8 |] %87
w: könnt!|Wenn sie nur|he- xen|könnt!|Wenn sie|he- xen...|||

